X:640
T:Billy In the Lowground
B:Fiddler's Fakebook
Z:Nigel Gatherer
L:1/8
M:4/4
K:C
C3   D EGAB  | cBcd cAGc  | AcAG EGGA | GECE DCA,A, |
G,A,CD EGAB  | cded cGcG  | AcAG EGGA | GECE DCCC  :|
C3   e g2 ga | gedg ec c2 | Gceg agab | agec dAcd   |
cde^f  gfga  | gedg edcA  | Gccc AGEG | GAGE DC C2 :|]
<end>
<start>
